X:6
T:Ton double plin
%T:TD2
G:Kazimodal
R:Das Plin
C:Traditionnel
Q:C2=160
P:FG4
M:4/4
S:basse bourdon accordon
K:Em
"Em"B \
P:G
|: "D"A>G AB "C"ED EB | "D"A>G "Bm"AB "Em"E2 EB :|
|: "D"A>G AB "C"ed BB | "D"AG "Am"Ac "Bm"B3 "G"B |\
"D"A>G AB "C"ed BB | "D"A>F "C"G"D"F "Em"E2 EB :|
